img/image/features-icon-1.svg

<svg width="40" height="40" viewBox="0 0 40 40" fill="none" xmlns="http://www.w3.org/2000/svg">
<g id="Group">
<g id="Group_2">
<path id="Vector" d="M9.83099 1.02672C7.08659 -0.425095 4.72534 0.026577 4.0036 0.224762C3.86104 0.261635 3.74075 0.363033 3.67392 0.496693L3.41107 1.03133L6.33811 2.57993C7.97316 3.44641 8.62362 5.52043 7.78605 7.2119L7.75487 7.27182C6.9173 8.9633 4.91247 9.6362 3.27296 8.76972L0.345901 7.22112L0.0563202 7.80646C-0.0105095 7.94473 -0.0194244 8.10604 0.0384941 8.24891C0.314716 8.9633 1.35723 11.1525 4.10608 12.6044C6.11536 13.6644 7.65686 13.4247 8.93995 12.3048C9.332 11.9637 9.91562 11.9821 10.2809 12.3601L29.3046 32.0402C29.5496 32.2937 29.6788 32.6578 29.6253 33.0127C29.3848 34.6212 29.8526 36.3404 31.0376 37.6309L31.951 36.686L31.9064 36.6722L30.8372 32.7408L31.9465 31.5932L31.5945 31.2291L33.635 29.1182L12.1076 6.8478C12.856 4.39124 12.4194 2.38174 9.83099 1.01289V1.02672Z" fill="#D8DADC"/>
<path id="Vector_2" d="M32.7796 28.2472L12.6778 7.45165C12.3392 7.10137 12.1967 6.599 12.2991 6.11967C12.7446 3.99956 12.1521 2.25739 9.82651 1.0268C7.08211 -0.425011 4.72086 0.0266628 3.99912 0.224846C3.85656 0.261717 3.73627 0.363115 3.66944 0.496775L3.40659 1.03141L6.80589 2.82889C8.44094 3.69537 8.61915 5.52051 7.78158 7.21199L11.1319 8.94495L31.3361 29.8465C31.2871 29.8879 31.2381 29.9248 31.1935 29.9709L32.3564 31.1738L33.5548 29.934L37.3551 31.0402L37.3684 31.0863L38.2817 30.1414C37.0699 28.9523 35.4661 28.4592 33.9513 28.6574C33.5192 28.7127 33.087 28.5652 32.7796 28.2472Z" fill="#B1B1B2"/>
<path id="Vector_3" d="M32.236 28.5835L12.4817 8.14745C12.1253 7.77874 11.9783 7.23488 12.1075 6.7279C12.6822 4.44187 11.9961 2.69509 9.51903 1.45528C6.71227 0.0495605 3.62038 0.607239 3.62038 0.607239L3.41098 1.03126L6.33803 2.57986C7.97308 3.44634 8.62353 5.52036 7.78596 7.21184L7.75478 7.27176C6.91721 8.96323 4.91238 9.63614 3.27287 8.76966L0.345818 7.22106L0.149788 7.61743C0.149788 7.61743 1.50417 10.8022 4.28865 12.1157C6.35586 13.0928 7.83052 13.0375 9.04678 12.0697C9.63041 11.6088 10.4457 11.6364 10.967 12.1711L29.5495 31.3949C29.9015 31.759 30.0218 32.289 29.9015 32.7868C29.4292 34.7087 30.0084 36.8519 31.6479 38.23C33.4968 39.7878 36.2011 39.797 38.0589 38.2576C40.4914 36.2435 40.6385 32.561 38.4955 30.3487C37.159 28.966 35.2744 28.5097 33.5725 28.9706C33.0914 29.0997 32.579 28.9383 32.2271 28.5742L32.236 28.5835ZM38.3441 35.142L35.8714 37.6999C35.7912 37.7829 35.6754 37.8152 35.5685 37.7829L32.1914 36.8473C32.0845 36.815 31.9999 36.7321 31.9687 36.6168L31.0643 33.1233C31.0331 33.0126 31.0643 32.8928 31.1445 32.8099L33.6171 30.2519C33.6973 30.1689 33.8131 30.1367 33.92 30.1689L37.2971 31.1045C37.404 31.1368 37.4887 31.2244 37.5198 31.335L38.4242 34.8286C38.4554 34.9392 38.4242 35.059 38.3441 35.142Z" fill="#6D6D6E"/>
<path id="Vector_4" d="M30.8545 30.0072L30.9049 29.9551C31.2842 29.5627 31.2842 28.9265 30.9049 28.5342L12.5797 9.57652C12.2004 9.18414 11.5855 9.18414 11.2062 9.57652L11.1558 9.62866C10.7765 10.021 10.7765 10.6572 11.1557 11.0496L29.481 30.0072C29.8603 30.3996 30.4752 30.3996 30.8545 30.0072Z" fill="#B1B1B2"/>
</g>
<g id="Group_3">
<path id="Vector_5" d="M26.6937 13.0978C27.5134 13.9459 28.8455 13.9459 29.6653 13.0978C30.485 12.2498 30.485 10.8717 29.6653 10.0237C29.6519 10.0098 29.6386 10.0006 29.6252 9.9868L37.1544 2.1977L37.9653 3.03653C38.0232 3.09645 38.0366 3.18862 37.9965 3.26237L32.53 13.273L28.8144 17.1168C28.5916 17.3473 28.2886 17.4809 27.9723 17.4855L26.4709 17.5132L24.4082 15.3792L26.658 13.0517C26.658 13.0517 26.6803 13.0794 26.6937 13.0932V13.0978Z" fill="#98989C"/>
<path id="Vector_6" d="M26.4407 13.2845L29.7043 9.9082L28.1008 8.24937L24.8372 11.6257L26.4407 13.2845Z" fill="#898989"/>
<path id="Vector_7" d="M28.0406 14.9442L31.3043 11.5679L29.7008 9.90904L26.4371 13.2854L28.0406 14.9442Z" fill="#B1B1B2"/>
<path id="Vector_8" d="M26.7025 13.1117C25.8828 12.2636 25.8828 10.8856 26.7025 10.0375C27.5223 9.18949 28.8544 9.18949 29.6741 10.0375C29.6875 10.0514 29.6964 10.0652 29.7098 10.079L37.239 2.28992L36.4282 1.45109C36.3703 1.39118 36.2812 1.37735 36.2099 1.41883L26.5332 7.07399L22.8176 10.9178C22.5948 11.1483 22.4656 11.4617 22.4612 11.7889L22.4344 13.3421L24.4972 15.4761L26.7471 13.1486C26.7471 13.1486 26.7203 13.1255 26.707 13.1117H26.7025Z" fill="#D8DADC"/>
<path id="Vector_9" d="M29.5761 9.95432L37.0207 2.2528C37.0697 2.2021 37.0697 2.12375 37.0207 2.07305L36.8514 1.89791C36.8113 1.85643 36.749 1.84721 36.7 1.87947L27.4599 7.84343C27.3842 7.89413 27.3129 7.95405 27.2461 8.01857L23.3612 12.0376C23.3077 12.0929 23.2587 12.1528 23.2141 12.2173L22.43 13.3465L21.6593 14.1577C21.138 14.6969 20.1133 14.932 18.8169 15.2315C16.5403 15.757 13.4172 16.4806 9.95552 19.481C6.42702 22.5413 5.17957 25.2422 4.07914 27.6296C3.36185 29.1828 2.74258 30.524 1.56196 31.75L3.34848 33.5981C4.84097 32.0542 5.58053 30.4502 6.36019 28.7542C7.39824 26.505 8.46748 24.1821 11.5772 21.4859C14.5666 18.8957 17.2308 18.2781 19.3649 17.7849C20.9955 17.407 22.4033 17.0843 23.4458 16.0058L24.0874 15.3422C24.1631 15.2638 24.2834 15.2638 24.3591 15.3422L24.4883 15.4758L26.7382 13.1483C26.7382 13.1483 26.7114 13.1253 26.6981 13.1114C25.8783 12.2634 25.8783 10.8853 26.6981 10.0373C27.1792 9.53952 27.8475 9.35516 28.4579 9.4243C28.8856 9.47499 29.3489 9.71927 29.5672 9.94971L29.5761 9.95432Z" fill="#6D6D6E"/>
<path id="Vector_10" d="M20.5366 30.4227C23.4369 26.8416 24.1364 23.6107 24.6443 21.2556C24.9339 19.9144 25.1611 18.8543 25.6823 18.3151L26.4665 17.5177L27.558 16.7065C27.6203 16.6605 27.6783 16.6098 27.7317 16.5545L31.6166 12.5355C31.679 12.4709 31.7369 12.3972 31.7859 12.3142L37.551 2.75531C37.5821 2.70461 37.5732 2.64008 37.5331 2.5986L37.2658 2.32207C37.2168 2.27137 37.1411 2.27137 37.0921 2.32207C36.2545 3.18394 29.6341 10.0144 29.643 10.0282C30.4628 10.8762 30.4761 12.2543 29.6564 13.1024C28.8366 13.9504 27.5045 13.9504 26.6848 13.1024C26.6714 13.0885 26.6625 13.0747 26.6491 13.0609L24.3993 15.3884L24.5329 15.5267C24.6042 15.6004 24.6042 15.7248 24.5329 15.7986L23.8869 16.4669C22.8444 17.5454 22.5325 19.0018 22.1672 20.6887C21.6905 22.9009 21.098 25.6525 18.5897 28.7451C15.9879 31.9621 13.738 33.0683 11.5639 34.1421C9.92437 34.9533 8.37396 35.7184 6.88148 37.2578L8.66801 39.106C9.85309 37.88 11.1495 37.2393 12.6509 36.5019C14.9543 35.3635 17.5695 34.073 20.5277 30.4227H20.5366Z" fill="#6D6D6E"/>
<path id="Vector_11" d="M6.86817 39.4517C7.46071 40.0647 8.5745 40.226 9.16704 39.613C10.3209 38.4193 11.5996 37.7879 13.0831 37.0597C15.4132 35.9121 18.0507 34.6077 21.0446 30.9114C23.985 27.2795 24.533 23.8551 25.0498 21.4723C25.3304 20.1726 25.5532 19.1448 26.021 18.6608L23.7221 16.2826C22.6306 17.4118 22.3054 18.9051 21.9356 20.6289C21.4633 22.8135 20.8797 25.5328 18.4115 28.5747C15.8409 31.7456 13.6222 32.8425 11.4704 33.9026C9.87988 34.6861 8.24036 35.4973 6.71669 37.0735C6.12415 37.6865 6.28009 38.8387 6.87263 39.4517H6.86817Z" fill="#739CED"/>
<path id="Vector_12" d="M7.63886 38.0319C8.79275 36.8382 10.0714 36.2068 11.555 35.4786C13.885 34.331 16.5225 33.0266 19.5164 29.3303C22.4568 25.6984 23.0048 22.274 23.5216 19.8912C23.8022 18.5915 24.025 17.5637 24.4928 17.0797L23.7176 16.2778C22.6261 17.407 22.3008 18.9003 21.9311 20.624C21.4588 22.8086 20.8752 25.5279 18.407 28.5698C15.8364 31.7407 13.6177 32.8377 11.4659 33.8977C9.87536 34.6812 8.23586 35.4924 6.71218 37.0687C6.36914 37.4236 6.27557 37.9536 6.37359 38.4606C6.44487 38.8339 7.05078 38.6449 7.64332 38.0319H7.63886Z" fill="url(#paint0_linear_226_1835)"/>
<path id="Vector_13" d="M1.23234 33.6214C0.639801 33.0084 0.483868 31.8562 1.07641 31.2432C2.2303 30.0495 2.84066 28.7267 3.54458 27.1919C4.65392 24.7814 5.91473 22.053 9.48779 18.9558C12.9985 15.9139 16.3087 15.347 18.612 14.8123C19.8684 14.522 20.8619 14.2915 21.3297 13.8076L23.6285 16.1858C22.537 17.315 21.0935 17.6514 19.4273 18.034C17.3155 18.5225 14.687 19.1263 11.7466 21.6796C8.6814 24.339 7.62107 26.6342 6.59638 28.8604C5.839 30.5057 5.05489 32.2018 3.53122 33.7781C2.93868 34.3911 1.82488 34.2298 1.23234 33.6168V33.6214Z" fill="url(#paint1_linear_226_1835)"/>
<path id="Vector_14" d="M26.3862 15.1213C25.9095 15.6145 25.1388 15.6145 24.6621 15.1213C24.1854 14.6282 24.1854 13.8308 24.6621 13.3377C25.1388 12.8445 25.9095 12.8445 26.3862 13.3377C26.863 13.8308 26.863 14.6282 26.3862 15.1213Z" fill="#898989"/>
<path id="Vector_15" d="M26.1278 14.854C25.7937 15.1997 25.259 15.1997 24.9249 14.854C24.5908 14.5084 24.5908 13.9553 24.9249 13.6096C25.259 13.2639 25.7937 13.2639 26.1278 13.6096C26.462 13.9553 26.462 14.5084 26.1278 14.854Z" fill="#504F53"/>
<path id="Vector_16" d="M24.239 16.1118C24.239 16.1118 24.7024 16.2086 25.3261 16.8538C25.8919 17.4392 26.0255 17.96 26.0255 17.96L26.4622 17.5083L24.542 15.5218C24.542 15.5218 24.6667 15.6647 24.542 15.7938C24.4172 15.9228 24.239 16.1072 24.239 16.1072V16.1118Z" fill="#39373A"/>
<path id="Vector_17" d="M1.94078 32.1416C3.09467 30.9479 3.70503 29.6251 4.40895 28.0904C5.51829 25.6799 6.7791 22.9514 10.3522 19.8542C13.8628 16.8123 17.173 16.2454 19.4764 15.7108C20.7327 15.4204 21.7262 15.19 22.194 14.706L23.6241 16.1855C22.5326 17.3147 21.0892 17.6511 19.4229 18.0337C17.3112 18.5222 14.6826 19.126 11.7422 21.6793C8.67701 24.3387 7.61668 26.6339 6.59199 28.86C5.8346 30.5054 5.05049 32.2015 3.52682 33.7778C3.18377 34.1327 2.67143 34.2295 2.18136 34.1281C1.82049 34.0543 0.960636 33.151 1.94078 32.137V32.1416Z" fill="#739CED"/>
</g>
</g>
<defs>
<linearGradient id="paint0_linear_226_1835" x1="37.3154" y1="53.2757" x2="3.09668" y2="52.0329" gradientUnits="userSpaceOnUse">
<stop stop-color="#040E1D"/>
<stop offset="0.203125" stop-color="#0E305F"/>
<stop offset="0.395833" stop-color="#133F7B"/>
<stop offset="0.578125" stop-color="#19519D"/>
<stop offset="0.786458" stop-color="#1161CD"/>
<stop offset="1" stop-color="#1161CD"/>
</linearGradient>
<linearGradient id="paint1_linear_226_1835" x1="39.8202" y1="47.4708" x2="-3.33654" y2="45.2956" gradientUnits="userSpaceOnUse">
<stop stop-color="#040E1D"/>
<stop offset="0.203125" stop-color="#0E305F"/>
<stop offset="0.395833" stop-color="#133F7B"/>
<stop offset="0.578125" stop-color="#19519D"/>
<stop offset="0.786458" stop-color="#1161CD"/>
<stop offset="1" stop-color="#1161CD"/>
</linearGradient>
</defs>
</svg>

<svg width="40" height="40" fill="none" xmlns="http://www.w3.org/2000/svg"><path d="M9.831 1.027C7.087-.425 4.725.027 4.004.225a.519.519 0 0 0-.33.272l-.263.534L6.338 2.58c1.635.866 2.286 2.94 1.448 4.632l-.031.06C6.917 8.963 4.912 9.636 3.273 8.77L.346 7.22l-.29.585a.547.547 0 0 0-.018.443c.277.714 1.32 2.903 4.068 4.355 2.01 1.06 3.55.82 4.834-.3a.97.97 0 0 1 1.34.056l19.025 19.68c.245.254.374.618.32.973a5.61 5.61 0 0 0 1.413 4.618l.913-.945-.045-.014-1.069-3.931 1.11-1.148-.352-.364 2.04-2.11L12.108 6.847c.748-2.457.311-4.466-2.277-5.835v.014Z" fill="#D8DADC"/><path d="M32.78 28.247 12.678 7.452a1.477 1.477 0 0 1-.379-1.332c.446-2.12-.147-3.863-2.472-5.093C7.082-.425 4.72.027 3.999.225a.519.519 0 0 0-.33.272l-.262.534L6.806 2.83c1.635.866 1.813 2.692.976 4.383l3.35 1.733 20.204 20.901c-.049.042-.098.079-.142.125l1.162 1.203 1.199-1.24 3.8 1.106.013.046.914-.945c-1.212-1.189-2.816-1.682-4.33-1.484a1.38 1.38 0 0 1-1.172-.41Z" fill="#B1B1B2"/><path d="M32.236 28.584 12.482 8.146a1.518 1.518 0 0 1-.374-1.42c.574-2.285-.112-4.032-2.589-5.272C6.712.05 3.62.607 3.62.607l-.209.424L6.338 2.58c1.635.866 2.286 2.94 1.448 4.632l-.031.06C6.917 8.963 4.912 9.636 3.273 8.77L.346 7.22l-.196.396s1.354 3.185 4.139 4.499c2.067.977 3.542.921 4.758-.046.583-.461 1.399-.434 1.92.101l18.582 19.224c.352.364.473.894.352 1.392-.472 1.922.107 4.065 1.747 5.443a5.004 5.004 0 0 0 6.41.028c2.433-2.015 2.58-5.697.438-7.91a4.999 4.999 0 0 0-4.924-1.377c-.48.129-.993-.033-1.345-.397l.009.01Zm6.108 6.558L35.871 37.7c-.08.083-.196.115-.303.083l-3.377-.936a.326.326 0 0 1-.222-.23l-.905-3.494c-.03-.11 0-.23.08-.313l2.473-2.558c.08-.083.196-.115.303-.083l3.377.936c.107.032.192.12.223.23l.904 3.494c.031.11 0 .23-.08.313Z" fill="#6D6D6E"/><path d="m30.855 30.007.05-.052a1.03 1.03 0 0 0 0-1.42L12.58 9.576a.948.948 0 0 0-1.374 0l-.05.052a1.03 1.03 0 0 0 0 1.42L29.48 30.008a.948.948 0 0 0 1.373 0Z" fill="#B1B1B2"/><path d="M26.694 13.098c.82.848 2.152.848 2.971 0 .82-.848.82-2.226 0-3.074-.013-.014-.026-.023-.04-.037l7.53-7.79.81.84c.058.06.072.152.031.225L32.53 13.273l-3.716 3.844c-.222.23-.525.364-.842.368l-1.501.028-2.063-2.134 2.25-2.327s.022.027.036.041v.005Z" fill="#98989C"/><path d="m26.44 13.284 3.264-3.376-1.603-1.659-3.264 3.377 1.604 1.659Z" fill="#898989"/><path d="m28.04 14.944 3.264-3.376-1.603-1.659-3.264 3.376 1.604 1.66Z" fill="#B1B1B2"/><path d="M26.703 13.112a2.229 2.229 0 0 1 0-3.075 2.054 2.054 0 0 1 2.971 0c.014.014.022.028.036.042l7.529-7.79-.81-.838a.178.178 0 0 0-.22-.032l-9.676 5.655-3.715 3.844c-.223.23-.352.544-.357.87l-.027 1.554 2.063 2.134 2.25-2.327s-.027-.023-.04-.037h-.005Z" fill="#D8DADC"/><path d="m29.576 9.954 7.445-7.701a.128.128 0 0 0 0-.18l-.17-.175a.118.118 0 0 0-.151-.019l-9.24 5.964c-.076.051-.147.111-.214.176l-3.885 4.019a1.416 1.416 0 0 0-.147.18l-.784 1.129-.77.81c-.522.54-1.547.775-2.843 1.075-2.277.525-5.4 1.249-8.861 4.249-3.529 3.06-4.776 5.761-5.877 8.149-.717 1.553-1.336 2.894-2.517 4.12l1.786 1.848c1.493-1.544 2.233-3.148 3.012-4.844 1.038-2.249 2.107-4.572 5.217-7.268 2.99-2.59 5.654-3.208 7.788-3.701 1.63-.378 3.038-.7 4.08-1.78l.642-.663a.186.186 0 0 1 .272 0l.13.134 2.25-2.328s-.028-.023-.04-.037a2.229 2.229 0 0 1 0-3.074 2.11 2.11 0 0 1 1.759-.613c.428.051.89.295 1.11.526l.008.004Z" fill="#6D6D6E"/><path d="M20.537 30.423c2.9-3.581 3.6-6.812 4.107-9.167.29-1.342.517-2.402 1.038-2.94l.785-.798 1.091-.812c.062-.046.12-.096.174-.151l3.885-4.02a1.19 1.19 0 0 0 .169-.22l5.765-9.56a.129.129 0 0 0-.018-.156l-.267-.277a.118.118 0 0 0-.174 0c-.837.862-7.458 7.692-7.449 7.706.82.848.833 2.226.013 3.074a2.054 2.054 0 0 1-2.971 0c-.014-.014-.022-.027-.036-.041l-2.25 2.327.134.139a.2.2 0 0 1 0 .272l-.646.668c-1.043 1.078-1.355 2.535-1.72 4.222-.477 2.212-1.069 4.963-3.577 8.056-2.602 3.217-4.852 4.323-7.026 5.397-1.64.811-3.19 1.576-4.683 3.116l1.787 1.848c1.185-1.226 2.482-1.867 3.983-2.604 2.303-1.139 4.919-2.429 7.877-6.08h.009Z" fill="#6D6D6E"/><path d="M6.868 39.452c.593.613 1.707.774 2.299.161 1.154-1.194 2.433-1.825 3.916-2.553 2.33-1.148 4.968-2.452 7.962-6.149 2.94-3.632 3.488-7.056 4.005-9.439.28-1.3.503-2.327.971-2.811l-2.299-2.378c-1.091 1.129-1.417 2.622-1.786 4.346-.473 2.184-1.056 4.904-3.524 7.946-2.571 3.17-4.79 4.268-6.942 5.328-1.59.783-3.23 1.594-4.753 3.17-.593.614-.437 1.766.156 2.379h-.005Z" fill="#739CED"/><path d="M7.639 38.032c1.154-1.194 2.432-1.825 3.916-2.553 2.33-1.148 4.968-2.452 7.961-6.149 2.94-3.632 3.489-7.056 4.006-9.439.28-1.3.503-2.327.97-2.811l-.774-.802c-1.092 1.129-1.417 2.622-1.787 4.346-.472 2.185-1.056 4.904-3.524 7.946-2.57 3.17-4.79 4.268-6.941 5.328-1.59.783-3.23 1.594-4.754 3.17-.343.356-.436.886-.338 1.393.07.373.677.184 1.27-.43h-.005Z" fill="url(#a)"/><path d="M1.232 33.621c-.592-.613-.748-1.765-.156-2.378 1.154-1.194 1.765-2.516 2.469-4.051 1.109-2.41 2.37-5.139 5.943-8.236 3.51-3.042 6.82-3.609 9.124-4.144 1.256-.29 2.25-.52 2.718-1.004l2.299 2.378c-1.092 1.129-2.536 1.465-4.202 1.848-2.111.489-4.74 1.092-7.68 3.646-3.066 2.659-4.126 4.954-5.15 7.18-.758 1.646-1.542 3.342-3.066 4.918-.592.613-1.706.452-2.299-.161v.004Z" fill="url(#b)"/><path d="M26.386 15.121a1.19 1.19 0 0 1-1.724 0 1.291 1.291 0 0 1 0-1.783 1.19 1.19 0 0 1 1.724 0 1.29 1.29 0 0 1 0 1.783Z" fill="#898989"/><path d="M26.128 14.854a.827.827 0 0 1-1.203 0 .898.898 0 0 1 0-1.244.827.827 0 0 1 1.203 0 .898.898 0 0 1 0 1.244Z" fill="#504F53"/><path d="M24.239 16.112s.463.097 1.087.742c.566.585.7 1.106.7 1.106l.436-.452-1.92-1.986s.125.143 0 .272l-.303.313v.005Z" fill="#39373A"/><path d="M1.94 32.142c1.155-1.194 1.765-2.517 2.469-4.052 1.11-2.41 2.37-5.139 5.943-8.236 3.51-3.042 6.821-3.609 9.124-4.143 1.257-.29 2.25-.521 2.718-1.005l1.43 1.48c-1.091 1.129-2.535 1.465-4.201 1.848-2.112.488-4.74 1.092-7.68 3.645-3.066 2.66-4.126 4.955-5.151 7.181-.757 1.645-1.542 3.342-3.065 4.918-.343.355-.856.452-1.346.35-.36-.074-1.22-.977-.24-1.991v.005Z" fill="#739CED"/><defs><linearGradient id="a" x1="37.315" y1="53.276" x2="3.097" y2="52.033" gradientUnits="userSpaceOnUse"><stop stop-color="#040E1D"/><stop offset=".203" stop-color="#0E305F"/><stop offset=".396" stop-color="#133F7B"/><stop offset=".578" stop-color="#19519D"/><stop offset=".786" stop-color="#1161CD"/><stop offset="1" stop-color="#1161CD"/></linearGradient><linearGradient id="b" x1="39.82" y1="47.471" x2="-3.337" y2="45.296" gradientUnits="userSpaceOnUse"><stop stop-color="#040E1D"/><stop offset=".203" stop-color="#0E305F"/><stop offset=".396" stop-color="#133F7B"/><stop offset=".578" stop-color="#19519D"/><stop offset=".786" stop-color="#1161CD"/><stop offset="1" stop-color="#1161CD"/></linearGradient></defs></svg>
